icons/clock-24.svg

<svg xmlns="http://www.w3.org/2000/svg" width="24" height="24" viewBox="0 0 24 24"><path d="M12.5 7.25a.75.75 0 00-1.5 0v5.5c0 .27.144.518.378.651l3.5 2a.75.75 0 00.744-1.302L12.5 12.315V7.25z"/><path d="M12 1c6.075 0 11 4.925 11 11s-4.925 11-11 11S1 18.075 1 12 5.925 1 12 1zM2.5 12a9.5 9.5 0 009.5 9.5 9.5 9.5 0 009.5-9.5A9.5 9.5 0 0012 2.5 9.5 9.5 0 002.5 12z"/></svg>

<svg xmlns="http://www.w3.org/2000/svg" width="24" height="24" viewBox="0 0 24 24">
  <defs/>
  <path d="M12.5,7.25 A0.75 0.75 0 0 0 11,7.25 L11,12.75 C11,13.02 11.144,13.268 11.378,13.401 L14.878,15.401 A0.75 0.75 0 0 0 15.622,14.099 L12.5,12.315 L12.5,7.25 Z"/>
  <path d="M12,1 C18.075,1 23,5.925 23,12 C23,18.075 18.075,23 12,23 C5.925,23 1,18.075 1,12 C1,5.925 5.925,1 12,1 Z M2.5,12 C2.5,17.247 6.753,21.5 12,21.5 C17.247,21.5 21.5,17.247 21.5,12 C21.5,6.753 17.247,2.5 12,2.5 C6.753,2.5 2.5,6.753 2.5,12 Z"/>
</svg>
